X:48
T:Maid Of Monsico
R:reel
M:4/4
L:1/8
K:Ador
|: EAA2 BGAG | EAA2 BGAG | EGG2 AGG2 | EGG2 EGDG |
EAA2 BGAG | EAA2 BABd | egg2 abge | dBGB A4 :|
A3B dBAB | G2BG DGBG | A3B dGBd | efge dBGB |
A3B dBAB | G2BG DGBG | A3B dGBd | efge d2 (3Bcd |
|: eaa2 bgab | gedB GABd | eaa2 bgab | gede g3e |
a3f g3e | dedB GABd | eAA2 efge | dBGB A2 (3Bcd :|
